svg/black/ppc.svg

<svg xmlns="http://www.w3.org/2000/svg" width="32" height="32" viewBox="0 0 32 32">
  <path fill-rule="evenodd" d="M16,32 C7.163444,32 0,24.836556 0,16 C0,7.163444 7.163444,0 16,0 C24.836556,0 32,7.163444 32,16 C32,24.836556 24.836556,32 16,32 Z M9,7.5 L9,16.7088319 C9,21.7585992 12.7508047,26.1416165 17.8828493,25.3348961 C20.8981012,20.9150982 18.2888285,14.068396 11.8230501,10.2199228 C19.9497606,13.5790101 21.6112866,19.6596549 20.7344031,24.7133046 C20.6874908,24.9791463 20.625337,25.2402883 20.5649647,25.5 C22.047155,24.4721875 22.7518289,23.485651 23.4151328,21.683199 C25.756194,15.2055284 21.0928762,7.94729254 9,7.5 Z"/>
</svg>

<svg xmlns="http://www.w3.org/2000/svg" width="32" height="32"><path fill-rule="evenodd" d="M16 32C7.163 32 0 24.837 0 16S7.163 0 16 0s16 7.163 16 16-7.163 16-16 16zM9 7.5v9.209c0 5.05 3.75 9.433 8.883 8.626 3.015-4.42.406-11.267-6.06-15.115 8.127 3.359 9.788 9.44 8.911 14.493-.047.266-.109.527-.169.787 1.482-1.028 2.187-2.014 2.85-3.817C25.756 15.206 21.093 7.947 9 7.5z"/></svg>
